actions/symbolic/path-difference-symbolic.svg

<?xml version="1.0" encoding="UTF-8" standalone="no"?>
<svg
   xmlns:dc="http://purl.org/dc/elements/1.1/"
   xmlns:cc="http://creativecommons.org/ns#"
   xmlns:rdf="http://www.w3.org/1999/02/22-rdf-syntax-ns#"
   xmlns:svg="http://www.w3.org/2000/svg"
   xmlns="http://www.w3.org/2000/svg"
   version="1.1"
   width="16"
   height="16"
   id="svg7435">
  <defs
     id="defs7437" />
  <metadata
     id="metadata7440">
    <rdf:RDF>
      <cc:Work
         rdf:about="">
        <dc:format>image/svg+xml</dc:format>
        <dc:type
           rdf:resource="http://purl.org/dc/dcmitype/StillImage" />
        <dc:title></dc:title>
      </cc:Work>
    </rdf:RDF>
  </metadata>
  <path
     id="path8335-7-6-2-5"
     d="M 10.173828,0.001953 A 6.0000006,6.0000022 0 0 0 4.089844,5 H 1 C 0.446,5 0,5.446 0,6 v 9 c 0,0.554 0.446,1 1,1 h 9 c 0.554,0 1,-0.446 1,-1 V 11.912109 A 6.0000006,6.0000022 0 0 0 16,6 6.0000006,6.0000022 0 0 0 10.173828,0.001953 Z m -0.0293,1 a 5.0000005,5.0000018 0 0 1 0.002,0 5.0000005,5.0000018 0 0 1 0.990235,0.128907 5.0000005,5.0000018 0 0 1 2.195312,1.140624 5.0000005,5.0000018 0 0 1 0.673828,0.736329 5.0000005,5.0000018 0 0 1 0.279297,0.414062 5.0000005,5.0000018 0 0 1 0,0.002 5.0000005,5.0000018 0 0 1 0.425782,0.902344 A 5.0000005,5.0000018 0 0 1 15,6 a 5.0000005,5.0000018 0 0 1 -0.394531,1.947266 5.0000005,5.0000018 0 0 1 -0.216797,0.449218 5.0000005,5.0000018 0 0 1 0,0.002 5.0000005,5.0000018 0 0 1 -0.09961,0.160157 5.0000005,5.0000018 0 0 1 -0.46289,0.662109 5.0000005,5.0000018 0 0 1 -1.558594,1.236328 5.0000005,5.0000018 0 0 1 -3.884766,0.275391 5.0000005,5.0000018 0 0 1 -0.460937,-0.183594 5.0000005,5.0000018 0 0 1 -0.002,-0.002 A 5.0000005,5.0000018 0 0 1 6.314406,9.380859 5.0000005,5.0000018 0 0 1 6.246046,9.298829 5.0000005,5.0000018 0 0 1 5.994093,8.992189 5.0000005,5.0000018 0 0 1 5.716749,8.582033 5.0000005,5.0000018 0 0 1 5.714749,8.578133 5.0000005,5.0000018 0 0 1 5.288967,7.675789 5.0000005,5.0000018 0 0 1 5.146389,7.201179 5.0000005,5.0000018 0 0 1 5.087799,6.898445 5.0000005,5.0000018 0 0 1 5.050689,6.707039 5.0000005,5.0000018 0 0 1 5.003819,6.212898 a 5.0000005,5.0000018 0 0 1 0,-0.0039 5.0000005,5.0000018 0 0 1 -0.0038,-0.208927 5.0000005,5.0000018 0 0 1 0.02539,-0.498047 5.0000005,5.0000018 0 0 1 0,-0.002 5.0000005,5.0000018 0 0 1 0.07422,-0.492187 5.0000005,5.0000018 0 0 1 0,-0.002 5.0000005,5.0000018 0 0 1 0.123047,-0.482422 5.0000005,5.0000018 0 0 1 0,-0.0019 A 5.0000005,5.0000018 0 0 1 5.394551,4.052765 5.0000005,5.0000018 0 0 1 5.873067,3.175812 5.0000005,5.0000018 0 0 1 6.175801,2.779327 5.0000005,5.0000018 0 0 1 7.298848,1.792999 5.0000005,5.0000018 0 0 1 8.18752,1.339874 5.0000005,5.0000018 0 0 1 10.144551,1.001984 Z M 1.5,6 H 4 a 6.0000006,6.0000022 0 0 0 6,5.996094 V 14.5 C 10,14.777 9.777,15 9.5,15 h -8 C 1.223,15 1,14.777 1,14.5 v -8 C 1,6.223 1.223,6 1.5,6 Z"
     style="opacity:1;vector-effect:none;fill:#555761;fill-opacity:1;stroke:none;stroke-width:1;stroke-linecap:butt;stroke-linejoin:miter;stroke-miterlimit:4;stroke-dasharray:none;stroke-dashoffset:0;stroke-opacity:1;marker:none;paint-order:normal" />
  <path
     id="rect5505-21-8-4-7-0-5"
     d="M 1.5,6 C 1.223,6 1,6.223 1,6.5 v 8 C 1,14.777 1.223,15 1.5,15 h 8 C 9.777,15 10,14.777 10,14.5 V 11.994141 A 6.0000006,6.0000022 0 0 1 4,6 Z m 3.517578,0.363281 a 5.0000005,5.0000018 0 0 0 0.02344,0.242188 5.0000005,5.0000018 0 0 1 -0.02344,-0.242188 z m 0.06055,0.482422 a 5.0000005,5.0000018 0 0 0 0.04492,0.238281 5.0000005,5.0000018 0 0 1 -0.04492,-0.238281 z m 0.121094,0.53125 A 5.0000005,5.0000018 0 0 0 5.250002,7.544922 5.0000005,5.0000018 0 0 1 5.199222,7.376953 Z M 5.357425,7.841797 A 5.0000005,5.0000018 0 0 0 5.433595,8.025391 5.0000005,5.0000018 0 0 1 5.357425,7.841797 Z M 5.5625,8.291016 A 5.0000005,5.0000018 0 0 0 5.65039,8.457031 5.0000005,5.0000018 0 0 1 5.5625,8.291016 Z M 5.828125,8.746094 A 5.0000005,5.0000018 0 0 0 5.916015,8.875 5.0000005,5.0000018 0 0 1 5.828125,8.746094 Z m 0.294922,0.402344 a 5.0000005,5.0000018 0 0 0 0.0918,0.113281 5.0000005,5.0000018 0 0 1 -0.0918,-0.113281 z m 0.355469,0.394531 a 5.0000005,5.0000018 0 0 0 0.07422,0.07227 5.0000005,5.0000018 0 0 1 -0.07422,-0.07227 z m 0.357422,0.320312 a 5.0000005,5.0000018 0 0 0 0.09961,0.08203 5.0000005,5.0000018 0 0 1 -0.09961,-0.08203 z m 0.433593,0.31836 a 5.0000005,5.0000018 0 0 0 0.05664,0.03711 5.0000005,5.0000018 0 0 1 -0.05664,-0.03711 z m 0.433594,0.253906 a 5.0000005,5.0000018 0 0 0 0.05664,0.0293 5.0000005,5.0000018 0 0 1 -0.05664,-0.0293 z m 0.4375,0.199219 a 5.0000005,5.0000018 0 0 0 0.08594,0.03516 5.0000005,5.0000018 0 0 1 -0.08594,-0.03516 z m 0.492187,0.169922 a 5.0000005,5.0000018 0 0 0 0.05664,0.01562 5.0000005,5.0000018 0 0 1 -0.05664,-0.01562 z m 0.484376,0.111328 a 5.0000005,5.0000018 0 0 0 0.0625,0.01172 5.0000005,5.0000018 0 0 1 -0.0625,-0.01172 z m 0.480468,0.0625 a 5.0000005,5.0000018 0 0 0 0.103516,0.0078 5.0000005,5.0000018 0 0 1 -0.103516,-0.0078 z"
     style="color:#000000;display:inline;overflow:visible;visibility:visible;opacity:0.25;vector-effect:none;fill:#555761;fill-opacity:1;fill-rule:nonzero;stroke:none;stroke-width:1;stroke-linecap:round;stroke-linejoin:round;stroke-miterlimit:4;stroke-dasharray:none;stroke-dashoffset:0;stroke-opacity:1;marker:none;paint-order:normal;enable-background:accumulate" />
</svg>

<svg
        xmlns='http://www.w3.org/2000/svg'
        xmlns:svg='http://www.w3.org/2000/svg'
        id='svg7435'
        width='16'
        height='16'>
  <path
          id='path8335-7-6-2-5'
          opacity='1'
          fill='url(#gpa:foreground) #555761'
          fill-opacity='1'
          fill-rule='nonzero'
          stroke='none'
          stroke-opacity='1'
          stroke-width='1'
          stroke-linecap='butt'
          stroke-linejoin='miter'
          stroke-miterlimit='4'
          stroke-dasharray='none'
          stroke-dashoffset='0'
          marker-start='none'
          marker-mid='none'
          marker-end='none'
          paint-order='normal'
          d='M 10.1738 0.001953 A 6 6 0 0 0 4.08984 5 L 1 5 C 0.446 5, 0 5.446, 0 6 L 0 15 C 0 15.554, 0.446 16, 1 16 L 10 16 C 10.554 16, 11 15.554, 11 15 L 11 11.9121 A 6 6 0 0 0 16 6 A 6 6 0 0 0 10.1738 0.001953 Z M 10.1445 1.00195 A 5 5 0 0 1 10.1465 1.00195 A 5 5 0 0 1 11.1368 1.13086 A 5 5 0 0 1 13.3321 2.27148 A 5 5 0 0 1 14.0059 3.00781 A 5 5 0 0 1 14.2852 3.42188 A 5 5 0 0 1 14.2852 3.42388 A 5 5 0 0 1 14.711 4.32622 A 5 5 0 0 1 15 6 A 5 5 0 0 1 14.6055 7.94727 A 5 5 0 0 1 14.3887 8.39648 A 5 5 0 0 1 14.3887 8.39848 A 5 5 0 0 1 14.2891 8.55864 A 5 5 0 0 1 13.8262 9.22075 A 5 5 0 0 1 12.2676 10.4571 A 5 5 0 0 1 8.38281 10.7325 A 5 5 0 0 1 7.92188 10.5489 A 5 5 0 0 1 7.91988 10.5469 A 5 5 0 0 1 6.31441 9.38086 A 5 5 0 0 1 6.24605 9.29883 A 5 5 0 0 1 5.99409 8.99219 A 5 5 0 0 1 5.71675 8.58203 A 5 5 0 0 1 5.71475 8.57813 A 5 5 0 0 1 5.28897 7.67579 A 5 5 0 0 1 5.14639 7.20118 A 5 5 0 0 1 5.0878 6.89845 A 5 5 0 0 1 5.05069 6.70704 A 5 5 0 0 1 5.00382 6.2129 A 5 5 0 0 1 5.00382 6.209 A 5 5 0 0 1 5.00002 6.00007 A 5 5 0 0 1 5.02541 5.50202 A 5 5 0 0 1 5.02541 5.50002 A 5 5 0 0 1 5.09963 5.00784 A 5 5 0 0 1 5.09963 5.00584 A 5 5 0 0 1 5.22268 4.52342 A 5 5 0 0 1 5.22268 4.52151 A 5 5 0 0 1 5.39455 4.05276 A 5 5 0 0 1 5.87307 3.17581 A 5 5 0 0 1 6.1758 2.77933 A 5 5 0 0 1 7.29885 1.793 A 5 5 0 0 1 8.18752 1.33987 A 5 5 0 0 1 10.1446 1.00198 Z M 1.5 6 L 4 6 A 6 6 0 0 0 10 11.9961 L 10 14.5 C 10 14.777, 9.777 15, 9.5 15 L 1.5 15 C 1.223 15, 1 14.777, 1 14.5 L 1 6.5 C 1 6.223, 1.223 6, 1.5 6 Z'
          class="foreground">
  </path>
  <path
          id='rect5505-21-8-4-7-0-5'
          display='inline'
          visibility='visible'
          opacity='0.25'
          color='rgb(0,0,0)'
          fill='url(#gpa:foreground) #555761'
          fill-opacity='1'
          fill-rule='nonzero'
          stroke='none'
          stroke-opacity='1'
          stroke-width='1'
          stroke-linecap='round'
          stroke-linejoin='round'
          stroke-miterlimit='4'
          stroke-dasharray='none'
          stroke-dashoffset='0'
          marker-start='none'
          marker-mid='none'
          marker-end='none'
          paint-order='normal'
          overflow='visible'
          d='M 1.5 6 C 1.223 6, 1 6.223, 1 6.5 L 1 14.5 C 1 14.777, 1.223 15, 1.5 15 L 9.5 15 C 9.777 15, 10 14.777, 10 14.5 L 10 11.9941 A 6 6 0 0 1 4 6 Z M 5.01758 6.36328 A 5 5 0 0 0 5.04102 6.60547 A 5 5 0 0 1 5.01758 6.36328 Z M 5.07813 6.8457 A 5 5 0 0 0 5.12305 7.08398 A 5 5 0 0 1 5.07813 6.8457 Z M 5.19922 7.37695 A 5 5 0 0 0 5.25 7.54492 A 5 5 0 0 1 5.19922 7.37695 Z M 5.35743 7.8418 A 5 5 0 0 0 5.4336 8.02539 A 5 5 0 0 1 5.35743 7.8418 Z M 5.5625 8.29102 A 5 5 0 0 0 5.65039 8.45703 A 5 5 0 0 1 5.5625 8.29102 Z M 5.82812 8.74609 A 5 5 0 0 0 5.91602 8.875 A 5 5 0 0 1 5.82812 8.74609 Z M 6.12305 9.14844 A 5 5 0 0 0 6.21485 9.26172 A 5 5 0 0 1 6.12305 9.14844 Z M 6.47852 9.54297 A 5 5 0 0 0 6.55274 9.61524 A 5 5 0 0 1 6.47852 9.54297 Z M 6.83594 9.86328 A 5 5 0 0 0 6.93555 9.94531 A 5 5 0 0 1 6.83594 9.86328 Z M 7.26953 10.1816 A 5 5 0 0 0 7.32617 10.2188 A 5 5 0 0 1 7.26953 10.1816 Z M 7.70312 10.4355 A 5 5 0 0 0 7.75977 10.4648 A 5 5 0 0 1 7.70312 10.4355 Z M 8.14062 10.6348 A 5 5 0 0 0 8.22657 10.6699 A 5 5 0 0 1 8.14062 10.6348 Z M 8.63281 10.8047 A 5 5 0 0 0 8.68945 10.8203 A 5 5 0 0 1 8.63281 10.8047 Z M 9.11719 10.916 A 5 5 0 0 0 9.17969 10.9277 A 5 5 0 0 1 9.11719 10.916 Z M 9.59766 10.9785 A 5 5 0 0 0 9.70117 10.9863 A 5 5 0 0 1 9.59766 10.9785 Z'
          class="foreground">
  </path>
</svg>
